svgs/battlegrounds_india.svg

<svg width="192" height="192" viewBox="0 0 192 192" fill="none" xmlns="http://www.w3.org/2000/svg">
<path d="M156.375 58.5H35.625C32.7255 58.5 30.375 60.7386 30.375 63.5V128.5C30.375 131.261 32.7255 133.5 35.625 133.5H156.375C159.274 133.5 161.625 131.261 161.625 128.5V63.5C161.625 60.7386 159.274 58.5 156.375 58.5Z" stroke="black" stroke-width="8" stroke-linecap="round" stroke-linejoin="round"/>
<path d="M46.125 118.5V73.5H61.875" stroke="black" stroke-width="8" stroke-linecap="round" stroke-linejoin="round"/>
<path d="M61.875 73.5H46.125V98.5H61.875V73.5Z" stroke="black" stroke-width="8" stroke-linecap="round" stroke-linejoin="round"/>
<path d="M114.375 96C115.767 96 117.103 95.4732 118.087 94.5355C119.072 93.5979 119.625 92.3261 119.625 91V78.5C119.625 77.1739 119.072 75.9021 118.087 74.9645C117.103 74.0268 115.767 73.5 114.375 73.5H103.875V96M114.375 96H103.875M114.375 96C115.767 96 117.103 96.5268 118.087 97.4645C119.072 98.4021 119.625 99.6739 119.625 101V113.5C119.625 114.826 119.072 116.098 118.087 117.036C117.103 117.973 115.767 118.5 114.375 118.5H103.875V96M98.625 96H109.125M19.875 118.5H30.375M19.875 73.5H30.375M161.625 118.5H172.125M161.625 73.5H172.125" stroke="black" stroke-width="8" stroke-linecap="round" stroke-linejoin="round"/>
<path d="M88.125 73.5V118.5H72.375V73.5" stroke="black" stroke-width="8" stroke-linecap="round" stroke-linejoin="round"/>
<path d="M145.875 83.5V73.5H130.125V118.5H145.875V96H140.625" stroke="black" stroke-width="8" stroke-linecap="round" stroke-linejoin="round"/>
</svg>

<svg width="192" height="192" viewBox="0 0 192 192" fill="none" xmlns="http://www.w3.org/2000/svg"><path d="M156.375 58.5H35.625c-2.9 0-5.25 2.239-5.25 5v65c0 2.761 2.35 5 5.25 5h120.75c2.899 0 5.25-2.239 5.25-5v-65c0-2.761-2.351-5-5.25-5Z" stroke="#000" stroke-width="8" stroke-linecap="round" stroke-linejoin="round"/><path d="M46.125 118.5v-45h15.75" stroke="#000" stroke-width="8" stroke-linecap="round" stroke-linejoin="round"/><path d="M61.875 73.5h-15.75v25h15.75v-25ZM114.375 96a5.385 5.385 0 0 0 3.712-1.465A4.88 4.88 0 0 0 119.625 91V78.5a4.88 4.88 0 0 0-1.538-3.535 5.385 5.385 0 0 0-3.712-1.465h-10.5V96m10.5 0h-10.5m10.5 0c1.392 0 2.728.527 3.712 1.465a4.88 4.88 0 0 1 1.538 3.535v12.5a4.883 4.883 0 0 1-1.538 3.536 5.388 5.388 0 0 1-3.712 1.464h-10.5V96m-5.25 0h10.5m-89.25 22.5h10.5m-10.5-45h10.5m131.25 45h10.5m-10.5-45h10.5M88.125 73.5v45h-15.75v-45M145.875 83.5v-10h-15.75v45h15.75V96h-5.25" stroke="#000" stroke-width="8" stroke-linecap="round" stroke-linejoin="round"/></svg>
